X:6296
T:Give us a Drink of Water
R:slip jig
Z:Devin McCabe
M:9/8
L:1/8
K:G
GBd gdc BAG|B/2c/2dB cAG A2 D|GBd gdc BAG|1 B/2c/2dB cAF G2D:|2 B/2c/2dB
cAF GBd||
!~g3 efg fed|~g3 efg a2f|~g3 bag fed|efg agf g2d|
!g2 g efg fed|~g3 efg a2c'|bag agf ged|efg agf gdB||
